svgs/duotone/truck-fast.svg

<svg xmlns="http://www.w3.org/2000/svg" viewBox="0 0 640 512"><!--! Font Awesome Pro 6.4.2 by @fontawesome - https://fontawesome.com License - https://fontawesome.com/license (Commercial License) Copyright 2023 Fonticons, Inc. --><path class="fa-primary" style="fill:var(--fa-primary-color,inherit);opacity:var(--fa-primary-opacity,1);" d="M64 48C64 21.5 85.5 0 112 0H368c26.5 0 48 21.5 48 48V96h50.7c17 0 33.3 6.7 45.3 18.7L589.3 192c12 12 18.7 28.3 18.7 45.3V256v32 64c17.7 0 32 14.3 32 32s-14.3 32-32 32H576h-1.1c-7.8-54.3-54.4-96-110.9-96s-103.1 41.7-110.9 96H286.9c-7.8-54.3-54.4-96-110.9-96c-48.1 0-89.2 30.4-105 73c-4.4-7.3-7-15.8-7-25V256H208c8.8 0 16-7.2 16-16s-7.2-16-16-16H64V192H240c8.8 0 16-7.2 16-16s-7.2-16-16-16H64V128H272c8.8 0 16-7.2 16-16s-7.2-16-16-16H64V48zM416 256H544V237.3L466.7 160H416v96z"/><path class="fa-secondary" style="fill:var(--fa-secondary-color,inherit);opacity:var(--fa-secondary-opacity,.4);" d="M288 112c0 8.8-7.2 16-16 16H16c-8.8 0-16-7.2-16-16s7.2-16 16-16H272c8.8 0 16 7.2 16 16zm-48 48c8.8 0 16 7.2 16 16s-7.2 16-16 16H48c-8.8 0-16-7.2-16-16s7.2-16 16-16H240zm-32 64c8.8 0 16 7.2 16 16s-7.2 16-16 16H16c-8.8 0-16-7.2-16-16s7.2-16 16-16H208zM96 432a80 80 0 1 1 160 0A80 80 0 1 1 96 432zm288 0a80 80 0 1 1 160 0 80 80 0 1 1 -160 0z"/></svg>

<svg xmlns="http://www.w3.org/2000/svg" viewBox="0 0 640 512"><!--! Font Awesome Pro 6.1.1 by @fontawesome - https://fontawesome.com License - https://fontawesome.com/license (Commercial License) Copyright 2022 Fonticons, Inc. --><defs><style>.fa-secondary{opacity:.4}</style></defs><path class="fa-primary" d="M64 48C64 21.49 85.49 0 112 0H368C394.5 0 416 21.49 416 48V96H466.7C483.7 96 499.1 102.7 512 114.7L589.3 192C601.3 204 608 220.3 608 237.3V352C625.7 352 640 366.3 640 384C640 401.7 625.7 416 608 416H574.9C567.1 361.7 520.4 320 464 320C407.6 320 360.9 361.7 353.1 416H286.9C279.1 361.7 232.4 320 176 320C127.9 320 86.84 350.4 70.99 392.1C66.56 385.7 64 377.1 64 368V256H208C216.8 256 224 248.8 224 240C224 231.2 216.8 224 208 224H64V192H240C248.8 192 256 184.8 256 176C256 167.2 248.8 160 240 160H64V128H272C280.8 128 288 120.8 288 112C288 103.2 280.8 96 272 96H64L64 48zM544 256V237.3L466.7 160H416V256H544z"/><path class="fa-secondary" d="M272 128H16C7.164 128 0 120.8 0 112C0 103.2 7.164 96 16 96H272C280.8 96 288 103.2 288 112C288 120.8 280.8 128 272 128zM240 160C248.8 160 256 167.2 256 176C256 184.8 248.8 192 240 192H48C39.16 192 32 184.8 32 176C32 167.2 39.16 160 48 160H240zM208 224C216.8 224 224 231.2 224 240C224 248.8 216.8 256 208 256H16C7.164 256 0 248.8 0 240C0 231.2 7.164 224 16 224H208zM256 432C256 476.2 220.2 512 176 512C131.8 512 96 476.2 96 432C96 387.8 131.8 352 176 352C220.2 352 256 387.8 256 432zM544 432C544 476.2 508.2 512 464 512C419.8 512 384 476.2 384 432C384 387.8 419.8 352 464 352C508.2 352 544 387.8 544 432z"/></svg>
